X:8
T:Untitled 48 bar jig
C:Neil Brookes
Z: "Neil Brookes" <neil:brookes36.freeserve.co.uk> tradtunes 2001-01-24
N:A minor-major type jig.
M:6/8
L:1/8
Q:3/8=140
K:Ddor
|DFAc3 | B>cB AGE | DFAG^Bd | Acfedc | DFAc3 | B>cB AGE | DFAG^Bd | AGED3 |
|DFAc3 | B>cB AGE | DFAG^Bd | Acfedc | DFAc3 | B>cB AGE | DFAG^Bd | AGED3 |
|DFAd2z | c>dc AGF | DFAf3 | efdecd | DFAd3 | c>dc AGE | DFAG^Bd | AGED3 |
|DFAd2z | c>dc AGF | DFAf3 | efdecd | DFAd3 | c>dc AGE | DFAG^Bd | AGED3 |
|D^FAdDD | ^cDDBA^F | D^FAGBd | A^cedA^F | D^FAdDD | ^cDDBA^F | D^FAGBd | AGED3 |
|D^FAdDD | ^cDDBA^F | D^FAGBd | A^cedA^F | D^FAdDD | ^cDDBA^F | D=FAGBd | AGED3 |
